public/images/solana.svg

<svg width="32" height="32" viewBox="0 0 32 32" fill="none" xmlns="http://www.w3.org/2000/svg">
<g id="Group 13">
<g id="Group 88">
<path id="Vector" d="M7.22655 21.5543C7.38598 21.3949 7.60021 21.3052 7.8244 21.3052H28.5748C28.9534 21.3052 29.1427 21.7635 28.8737 22.0276L24.7734 26.1278C24.614 26.2873 24.3998 26.3769 24.1756 26.3769H3.42523C3.04659 26.3769 2.85727 25.9186 3.1263 25.6545L7.22655 21.5543Z" fill="white" fill-opacity="0.44"/>
<path id="Vector_2" d="M7.22655 6.2491C7.38598 6.08968 7.60021 6 7.8244 6H28.5748C28.9534 6 29.1427 6.45835 28.8737 6.7224L24.7734 10.8177C24.614 10.9771 24.3998 11.0668 24.1756 11.0668H3.42523C3.04659 11.0668 2.85727 10.6084 3.1263 10.3444L7.22655 6.2491Z" fill="white" fill-opacity="0.44"/>
<path id="Vector_3" d="M24.7734 13.8516C24.614 13.6922 24.3998 13.6025 24.1756 13.6025H3.42523C3.04659 13.6025 2.85727 14.0609 3.1263 14.3249L7.22655 18.4202C7.38598 18.5796 7.60021 18.6693 7.8244 18.6693H28.5748C28.9534 18.6693 29.1427 18.211 28.8737 17.9469L24.7734 13.8516Z" fill="white" fill-opacity="0.44"/>
</g>
</g>
</svg>

<svg xmlns="http://www.w3.org/2000/svg" width="32" height="32" fill="none"><path fill="#fff" fill-opacity=".44" d="M7.227 21.554a.84.84 0 0 1 .597-.249h20.75c.38 0 .569.459.3.723l-4.1 4.1a.844.844 0 0 1-.598.249H3.426a.422.422 0 0 1-.3-.723l4.1-4.1Zm0-15.304A.841.841 0 0 1 7.824 6h20.75c.38 0 .569.458.3.722l-4.1 4.096a.845.845 0 0 1-.598.249H3.426a.422.422 0 0 1-.3-.723l4.1-4.095Zm17.546 7.602a.845.845 0 0 0-.597-.25H3.426a.422.422 0 0 0-.3.723l4.1 4.095c.16.16.374.25.598.25h20.75a.422.422 0 0 0 .3-.723l-4.1-4.095Z"/></svg>
